rospo-icon-theme-classic-common/24x24/apps/com.github.rickybas.date-countdown.svg

<svg height="24" viewBox="0 0 24 24" width="24" xmlns="http://www.w3.org/2000/svg"><path d="m12 2.5v9.5h-9.9746094a10 10 0 0 0 -.0253906.5 10 10 0 0 0 10 10 10 10 0 0 0 10-10 10 10 0 0 0 -10-10z" opacity=".2"/><path d="m11.5 2c-.828427 0-1.5.6715729-1.5 1.5s.671573 1.5 1.5 1.5c.216218 0 .341623-.0091793.5-.0136719v7.0136719h-7.0136719c.0044926-.158377.0136719-.283782.0136719-.5 0-.828427-.6715729-1.5-1.5-1.5s-1.5.671573-1.5 1.5c0 .216218.0091793.341623.0136719.5h-.0136719a10 10 0 0 0 10 10 10 10 0 0 0 10-10 10 10 0 0 0 -10-10v .0136719c-.158377-.0044926-.283782-.0136719-.5-.0136719z" fill="#4c91d9"/><circle cx="12" cy="12.5" opacity=".2" r="7"/><circle cx="12" cy="12" fill="#fff" r="7"/><path d="m11.5 2c-.828427 0-1.5.6715729-1.5 1.5 0 .085501.01165.1684069.02539.25.1194-.708974.731684-1.25 1.47461-1.25.216218 0 .341623.00918.5.013672v-.013672c5.439199.00415 9.877627 4.3549343 9.990234 9.792969.004687-.097603.007942-.19527.009766-.292969 0-5.5228475-4.477153-10-10-10v .013672c-.158377-.0044927-.283782-.013672-.5-.013672zm-8 8c-.8284271 0-1.5.671573-1.5 1.5 0 .170621.0071.276184.011719.394531.0550523-.778309.6959596-1.394531 1.488281-1.394531s1.4332287.616222 1.4882812 1.394531c.0046185-.118347.0117188-.22391.0117188-.394531 0-.828427-.6715729-1.5-1.5-1.5zm1.5 2c0 .216218-.00918.341623-.013672.5z" fill="#fff" opacity=".2"/></svg>

<svg xmlns="http://www.w3.org/2000/svg" width="24" height="24" version="1.1" viewBox="0 0 24 24">
 <path style="opacity:0.2" d="M 12 2.5 L 12 12 L 2.0253906 12 A 10 10 0 0 0 2 12.5 A 10 10 0 0 0 12 22.5 A 10 10 0 0 0 22 12.5 A 10 10 0 0 0 12 2.5 z"/>
 <path style="fill:#4c91d9" d="M 11.5 2 C 10.671573 2 10 2.6715729 10 3.5 C 10 4.3284271 10.671573 5 11.5 5 C 11.716218 5 11.841623 4.9908207 12 4.9863281 L 12 12 L 4.9863281 12 C 4.9908207 11.841623 5 11.716218 5 11.5 C 5 10.671573 4.3284271 10 3.5 10 C 2.6715729 10 2 10.671573 2 11.5 C 2 11.716218 2.0091793 11.841623 2.0136719 12 L 2 12 A 10 10 0 0 0 12 22 A 10 10 0 0 0 22 12 A 10 10 0 0 0 12 2 L 12 2.0136719 C 11.841623 2.0091793 11.716218 2 11.5 2 z"/>
 <circle style="opacity:0.2" cx="12" cy="12.5" r="7"/>
 <circle style="fill:#ffffff" cx="12" cy="12" r="7"/>
 <path style="opacity:0.2;fill:#ffffff" d="M 11.5,2 C 10.671573,2 10,2.6715729 10,3.5 10,3.585501 10.01165,3.6684069 10.02539,3.75 10.14479,3.041026 10.757074,2.5 11.5,2.5 c 0.216218,0 0.341623,0.00918 0.5,0.013672 L 12,2.5 c 5.439199,0.00415 9.877627,4.3549343 9.990234,9.792969 C 21.994921,12.195366 21.998176,12.097699 22,12 22,6.4771525 17.522847,2 12,2 l 0,0.013672 C 11.841623,2.0091793 11.716218,2 11.5,2 Z m -8,8 C 2.6715729,10 2,10.671573 2,11.5 2,11.670621 2.0071,11.776184 2.011719,11.894531 2.0667713,11.116222 2.7076786,10.5 3.5,10.5 c 0.7923214,0 1.4332287,0.616222 1.4882812,1.394531 C 4.9928997,11.776184 5,11.670621 5,11.5 5,10.671573 4.3284271,10 3.5,10 Z M 5,12 c 0,0.216218 -0.00918,0.341623 -0.013672,0.5 z"/>
</svg>
